X:14
T:I was within a mile of Edenburgh town. JJo.014
S:J.Jones MS,1801,N.Shrops.
C:words T.D’Urfey(1653-1723)music H.Purcell(1659-1695)
N:Slightly mangled version.
Z:Neil Brookes 2006
M:4/4
L:1/8
Q:1/2=60
K:D
{gfe}f>g|a<fTe>f d2f<d|B<dA<F A2 {edc}d>e|\
f<ab<d’ a<f d2e/f/|Tf2{ef}e2z{gfe}f>g|!
a<fTe>g d2f<d|B<dA<F A2 {edc}d>e|f<ab<d’ a<fe<f|d4::!
d>ef>g a>f d’2|d>ef>g a>f Hd’d|d>ed>B A>FA>d|!
fdfa Hb2″some grace notes here in MS” d’c’/b/|\
a<ff>d B<dA<d|f>aTe>f d2z2:|

